X: 1516
T: Nişâbur Seyir
C: Şefik Gürmeriç
O: Turkey
F: http://compmusic.upf.edu/node/140
N: nisabur--seyir--sofyan--1--sefik_gurmeric
N: makam= nisabur
N: form= seyir
N: usul= sofyan = 4/4
M: 4/4
L: 1/16
K: C ^c   
Q: 1/4=60
%%MIDI tuningsystem comma53
c4 d4 d4 e2f2  | e2d2 d2c2 B8  | c2d2 e2f2 e2g2 f2e2  | \
w:   |   |   | 
e2d2 d2c2 d8  | 
w:   | 
z4 G4 G2G2 d4  | e4 d2c2 d8  | e2g2 f2e2 e2d2 d2c2  | \
w:   |   |   | 
d3c B2c2 B8  | 
w:   | 
z4 B2B2 B2c2 A4  | B2c2 B4 c2d2 c4  | \
w:   |   | 
d4 e2f2 e2g2 f2e2  | e2d2 c2d2 e8  | 
w:   |   | 
e2f2 g2a2 g2f2 e2d2  | f2e2 d2c2 d8  | \
w:   |   | 
c2d2 e2f2 e2d2 c2B2  | 
w:   | 
c6d2 B8  | |


